X: 6
T: The Killarney Boys Of Pleasure
R: reel
M: 4/4
L: 1/8
K: Emin
|:E3D E2FA|BFAF DEFA|B3d e3d|(3Bcd AF DEFD|
E3D E2FA|BFAF DEFA|B3d e3d|1 (3Bcd AF FEED:|2(3Bcd AF FE E2||
|:Be e2 Be e2|dBAF DEFA|dffe f3e|dBAF DEFA|
Be e2 Be e2|dBAF DEFA|dffe d3A|1(3Bcd AF FE E2:|2(3Bcd AF FEED|


Tune 733	Setting 2206

